X: 07003
T: ADA'S JIG
C: Bob McQuillen 9 Mar 83
B: Bob's Note Book 7 #3
%R: jig
Z: 2019 John Chambers <jc:trillian.mit.edu>
M: 6/8
L: 1/8
K: G
|:DEG AGA | BGG G2B | d2B BAG | ABG E2G |\
| DEG AGA | BGG GBd | geg dBd | edB A2G :|
|:BAB d2d | ede ged | Bde gba | geg dBA |\
| BAB dBd | ede g2d | Bde geg | BdB A2G :|
%%begintext align
%% It's about
%% time I wrote Ada Page (she's Mrs.
%% Ralph) a tune - Shoulda done it long
%% ago, Ada - love always to you -
%%endtext

%%sep 1 1 500

%%sep 1 1 500

